X:11427
T:Munster Buttermilk
Z:id:hn-jig-377
M:6/8
K:D
def edB|A2F FEF|AFF DFA|BAF DFA|
d2f edB|A2F FEF|AFE DEF|~E3 D3:|
|:A2B d2e|~f3 fed|~e3 edB|dcd edB|
A2B d2e|~f3 fed|edB Adf|edc d3:|
